tools/download-figma-icons/icons/outlined-medium/emob-cable-smooth.svg

<svg width="24" height="24" viewBox="0 0 24 24" fill="none" xmlns="http://www.w3.org/2000/svg">
<path fill-rule="evenodd" clip-rule="evenodd" d="M20.7948 11.7727C20.1168 11.3902 19.0001 10.7609 18.3656 10.4077C18.2366 10.335 18.1856 10.2877 18.1796 10.2877H18.1788C18.1728 10.2607 18.1713 10.2345 18.1683 10.209C18.0693 9.40121 17.5863 8.99396 16.3211 8.65121C15.1024 8.32046 13.6879 7.93421 12.8726 7.71146L13.1629 6.25722C14.1041 6.38172 15.9424 6.68922 17.9253 7.38897C19.8723 8.07596 21.4601 9.23396 22.2296 9.8602L20.7948 11.7727ZM23.7678 9.20695C23.6763 9.11995 21.4908 7.05671 18.4248 5.97447C15.3813 4.90123 12.7286 4.69723 12.6176 4.68973C12.2246 4.65898 11.9014 4.91922 11.8271 5.28972L11.6839 6.00747C10.3106 5.81772 9.86738 5.27247 9.36938 4.64848C8.78213 3.91348 8.05313 2.99998 5.99965 2.99998C4.1494 2.99998 2.99966 4.43698 2.99966 6.74997C2.99966 9.26395 5.28565 10.8164 7.49664 12.3179C9.42713 13.6282 11.2496 14.8664 11.2496 16.4999C11.2496 17.6204 10.9579 19.4999 8.99963 19.4999C7.21164 19.4999 6.67014 17.5979 6.53064 16.0019C6.42714 14.8064 5.9464 13.8479 5.1034 13.1527C3.38666 11.7367 0.781922 11.9902 0.671672 12.0044C0.260674 12.0464 -0.037074 12.4147 0.00492579 12.8257C0.0476756 13.2367 0.411424 13.5322 0.826922 13.4962C0.846422 13.4924 2.92766 13.2967 4.1539 14.3137C4.6789 14.7487 4.96765 15.3442 5.03665 16.1317C5.30665 19.2262 6.75039 20.9999 8.99963 20.9999C11.7649 20.9999 12.7496 18.6749 12.7496 16.4999C12.7496 14.0714 10.5079 12.5489 8.33963 11.0759C6.36489 9.7357 4.49965 8.46971 4.49965 6.74997C4.49965 5.72397 4.7599 4.49998 5.99965 4.49998C7.33089 4.49998 7.67514 4.93123 8.19638 5.58447C8.77538 6.30897 9.48788 7.18721 11.3899 7.47596L11.2646 8.10221C11.1866 8.48846 11.4221 8.8687 11.8016 8.9737C11.8016 8.9737 14.0891 9.6007 15.9288 10.0987C16.4051 10.2277 16.6023 10.3267 16.6773 10.3732L16.6796 10.3904C16.7328 10.8329 16.8858 11.3002 17.6351 11.7179C18.5898 12.2497 20.6306 13.4024 20.6306 13.4032C20.7476 13.4684 20.8736 13.4999 20.9988 13.4999C21.2291 13.4999 21.4541 13.3942 21.5996 13.1992L23.8496 10.1992C24.0783 9.89545 24.0423 9.46945 23.7678 9.20695Z" fill="black"/>
</svg>

<svg width="24" height="24" viewBox="0 0 24 24" fill="none" xmlns="http://www.w3.org/2000/svg"><path fill-rule="evenodd" clip-rule="evenodd" d="M20.795 11.773a611.126 611.126 0 0 0-2.43-1.365c-.128-.073-.18-.12-.185-.12h-.001c-.006-.027-.008-.053-.01-.079-.1-.808-.583-1.215-1.848-1.558-1.219-.33-2.633-.717-3.448-.94l.29-1.454c.941.125 2.78.432 4.762 1.132 1.947.687 3.535 1.845 4.305 2.471l-1.435 1.913Zm2.973-2.566c-.092-.087-2.277-2.15-5.343-3.233-3.044-1.073-5.696-1.277-5.807-1.284a.737.737 0 0 0-.79.6l-.144.717c-1.373-.19-1.817-.735-2.315-1.359C8.782 3.913 8.053 3 6 3 4.15 3 3 4.437 3 6.75c0 2.514 2.287 4.066 4.498 5.568 1.93 1.31 3.753 2.548 3.753 4.182 0 1.12-.292 3-2.25 3-1.788 0-2.33-1.902-2.47-3.498-.103-1.196-.584-2.154-1.427-2.85C3.387 11.738.782 11.99.672 12.005a.748.748 0 0 0-.667.822.754.754 0 0 0 .822.67c.02-.004 2.1-.2 3.327.818.525.435.814 1.03.883 1.818C5.307 19.226 6.75 21 9 21c2.765 0 3.75-2.325 3.75-4.5 0-2.429-2.242-3.951-4.41-5.424C6.365 9.736 4.5 8.47 4.5 6.75c0-1.026.26-2.25 1.5-2.25 1.33 0 1.675.431 2.196 1.084.58.725 1.292 1.603 3.194 1.892l-.125.626a.751.751 0 0 0 .537.872s2.287.627 4.127 1.125c.476.129.673.228.748.274l.003.017c.053.443.206.91.955 1.328.955.532 2.996 1.684 2.996 1.685a.754.754 0 0 0 .969-.204l2.25-3a.75.75 0 0 0-.082-.992Z" fill="currentColor"/></svg>
